X:1
T:Title
%%score { ( 1 3 ) | ( 2 4 ) }
L:1/8
Q:1/4=84
M:6/8
K:D
V:1 treble nm="Grand Piano"
V:3 treble 
V:2 bass 
V:4 bass 
V:1
 FFF GFG | z3 [DB]3 | GFG AE[CE] | [DF]6 | [Fd][Fd][Fd] [Fc][Fc][Fc] | [FB]3 [FA]3 | %6
w: May~Agnew~Stephens * * * * *||||||
 AAA [^GB][Ac][Gd] | c6 | [Fd]3 [Ge][Gd].[B,GB] | [DFA]3 [A,DF]3 | [Fd][Fd][Fd] Bcd | c6 | %12
w: ||||||
 [Fd][Gd][Ad] edB | [DFA]3 [DFd]3 | [F,D][G,DE][K:treble][A,DF] [DA][DF][CE] | D6 |] %16
w: ||||
V:2
 [D,A,D][D,A,D][D,A,D] [E,A,C][^D,A,C][E,A,C] | [F,A,D]3 .[B,,F,]3 | %2
 [E,B,E][E,A,D][E,B,E] [G,A,C][A,C][A,,A,] | [D,A,]6 | [B,,B,][B,,B,][B,,B,] [C,^A,][C,A,][C,A,] | %5
 [D,B,]3 [^D,=C]3 | [E,CE][E,CE][E,CE] [E,D][E,C][E,B,] | A3 z3 | [D,A,]3 [D,B,].[D,B,]>C | %9
 D,3 D,3 | [B,,B,][B,,B,][B,,B,] [E,^G,E][E,A,E][E,B,E] | [A,,A,]6 | %12
 [D,A,][E,A,][F,D][K:treble] [G,B,G][G,B,G][G,DG] | D,3 B,,3 | A,,A,,A,, [A,,F,][A,,A,][A,,G,] | %15
 [D,F,]6 |] %16
V:3
 x6 | A3 z2 B, | x6 | x6 | x6 | x6 | x6 | z3 G3 | x6 | x6 | x6 | E3 G3 | x6 | x6 | %14
 x2[K:treble] x4 | x6 |] %16
V:4
 x6 | x6 | x6 | x6 | x6 | x6 | x6 | A,6 | z3 z2 D, | x6 | x6 | x6 | x3[K:treble] x3 | x6 | x6 | %15
 x6 |] %16

